X: 21341
T: Oswald's Wish
%R: air, reel
B: James Oswald "The Caledonian Pocket Companion" v.2 p.134 #1
Z: 2018 John Chambers <jc:trillian.mit.edu>
M: C
L: 1/8
K: G
|: "_Slow"\
B3d G3B | A2(Bc) TB2(AB) | (cB)(AG) (G2F)G | A2(Bc) (B2A)z |\
B3d G3B | Aedc TB2(AB) | (cB)(AG) (FA)(Gc) | B2(TA>G) G4 :|
|:\
(d4 ^c2)z2 | (=c4 B2)z2 | ("_Po"_B4 A2)G2 | (FA)(G_B) (B2A)z |\
("_Fe"d4 ^c2)(ed) | (f4 e2)(gf) | (BA)(d^c) e2(fg) | f2Te>d d4 |
B3d G3B | A2(Bc) TB2A2 | (ec)(BA) (G2F)G | (Ac)(Bd) (B2A)z |\
B3d G3B | (Ae)(dc) TB2(AB) | (cB)(AG) (Fe)(dc) | B2TA>G G4 |
(g4 f2)z2 | e3g (d<B)B2 | g4 f3b | (ag)(fe) (^dc)(BA) |\
(G>B)(A>c) (B>e)(^d>f) | (e>g)(f>a) (g>b)(a>c') | b4 B3a | (gf)(e^d) e2(e/f/g) |
B3d G3B | (Ae)(dc) TB2(AB) | (cB)(AG) (G2F)G | A2Bc (B2A)z |\
B3d G3B | (Ae)(dc) TB2(AB) | (cB)(AG) (FA)(Gc) | B2(TA>G) G4 :|


